X: 3
T: The Road To Ballymac
R: reel
M: 4/4
L: 1/8
K: Gmaj
|:DG (3GGG BAGA | Bd (3ddd e2 de | gd (3ddd egde | gedB ABGE |DG (3GGG BAGA | Bd (3ddd e2 de | gd (3ddd egdB |1 AGAB G2 GE :|2 AGAB G2 GA ||Bd (3ddd edBd | eg (3ggg a2 ga | bgag egde | gedB ABGA | Bd (3ddd edBd | eg (3ggg a2 ga | bgag egdB |1 AGAB G2 GA :|2 AGAB G4 ||


Tune 2251	Setting 15619

